!!!OTL: 612. Kirmessreigen.
!!!COM: J. A. P. Schulz
!!!ODT: 1779
!!!ARE: Europa, Mitteleuropa, Deutschland
!!!SCT: B0612
!!!TXL: @@DE
!!!YEM: Copyright 1995, estate of Helmut Schaffrath.
**kern	**text
*ICvox	*
*Ivox	*
*clefG2	*
*M4/4	*
*met(c)	*
*k[f#c#]	*
*D:	*
=1	=1
!LO:TX:a:t=Heiter.	!
{4dd	Sagt
4dd	mir
4cc#	an,
4cc#	was
=2	=2
4b	ſchmun-
4b	-ʒelt
2a}	ihr?
=3	=3
{4b/	Schiebt
4a	ihrs
4b/	auf
4a	das
=4	=4
4g	Kir-
4f#	-meß-
2e}	-bier,
=5	=5
{4g	daß
4g	ich
4e	ſo
4e	vor
=6	=6
4f#	Freu-
4f#	-den
4e	krä-
4e}	-he
=7	=7
{4f#	und
4f#	auf
4e	ei-
4e	-nem
=8	=8
4f#	Bein
4f#	mich
4e	dre-
4e}	-be?
=9	=9
{4f#	Schur-
4e	-ken
4f#	um
4g	und
=10	=10
(<2a	um
4dd)	.
4r}	.
=11	=11
{8gL	Schur-
8f#J	.
8eL	-ken
8dJ	.
4a	um
4a	und
=12	=12
2d	um!
2r}	.
==	==
!!!AGN: Staende -, Bauern - Lied, Tanz
!!!GTL: Seemanns-, Bergmanns-, Bauern- und Handwerkerlieder
!!!ONB: ESAC (Essen Associative Code) Database: BOEHME
!!!AMT: simple quadruple
!!!AIN: vox
!!!EED: Helmut Schaffrath
!!!EEV: 1.0
!!!RDF**kern: < = below
!!@@COMMENT:"* Hier iſt vom Sänger kein Wort ʒu ergänʒen. Was er hinʒudenkt, iſt ſeine Sache.
!!Gedicht von J. Heint. Voß 1779. Mit der Muſik gedruckt ʒuerſt in J. A. P. Schulʒ',
!!"Geſänge am Clavier. J. Theil. Berlin, 1779, S. 42. Daraus, aber ohne letʒte Strophe Becker,
!!Lieder und Weiſen". 2. Abtheilung, S. 57 und Fink, Hausſchatʒ Nr. 167. Bei Erlach, Volkslieder
!!5, 149 mit 7 Strophen. Auch von C. M. v. Weber komponirt. Schwäbiſch ſo bei Weber, Becker, Fink).
!!** koranʒen ſkuranʒen - quälen, durcharbeiten."
!!@@END:
!!!Text: J. H. Voß
!!!URL-scan: https://archive.org/details/BoehmeVtLieder1895/page/n483/mode/2up
!!!ENC: Anna Maria Matuszewska
!!!EEV: 2024/15/07
*-	*-
